X: 35545
T: Russian Ballet
R: reel
M: 4/4
K: Gmajor
|:dB|"G" G2Bd gfed|"C" cc (3efg "D" a>b a d'|"G" g2 (3Bcd gfed|"C" e>d ef "G" g2:|
|:(3def|"G" g2b2 a2g2|"C" e2g2 "G" d2B2|"G" d2d2 c'2b2|"G" b2 c'b "D7" a2bc'|
"G" d'2b2 c'bag|"C" e2g2 "G" d2B2|"D7" c2d2e2f2|"G" G4 G2||

